!!!ONB: MCCC : IFS0515_03 : Extracted Monophonic Melody
!!!COM: Schubert, Franz
!!!OPR: 6 Moments musicaux
!!!OMV: 3
!!!SCT: D.780 (Op.94)
!!!ODT: 1823///
**kern
*staff1
*clefG2
*k[b-e-a-d-]
*A-:
*M2/4
32b-
=3
8a-
16a-
16b-
8a-
16g
32a-
32b-
=4
4cc
8.cc
32cc[
32cc]
=5
8a-
16a-
16b-
8a-
16cc
32r
32cc
=6
8.ff
32ff[
32ff]
8.ff
32ff
32gg-
=7
8ff
16ff
16gg-
8ff
8ff
=8
8ff
8bb-
4ff
=9
16cc
16b-
16a-
16b-
16cc
16dd-
16cc
16ee
=10
4ff
8.ff
32ff[
32ff]
=11
8a-
16a-
16b-
8a-
16g
32a-
32b-
=12
4cc
8.cc
32cc[
32cc]
=13
8a-
16a-
16b-
8a-
16cc
32r
32cc
=14
8.ff
32ff[
32ff]
8.ff
32ff
32gg-
=15
8ff
16ff
16gg-
8ff
8ff
=16
8ff
8bb-
4ff
=17
16cc
16b-
16a-
16b-
16cc
16dd-
16cc
16ee
=18
4ff
4ff
=19
8cc[
8cc]
8cc[
8cc]
=20
16cc
16dd-
16ee-
16dd-
8dd-[
16dd-]
16cc
=21
32cc
16.b-
8b-
16cc
16b-
16a-
16b-
=22
8b-[
8b-]
8cc
16cc
32cc
32ee-
=23
8aa-
16aa-
32aa-[
32aa-]
8aa-[
8aa-]
=24
16gg
16ff
16ee
16ff
8ff[
8ff]
=25
16ff
8.ee-
8ee-
8ee-
=26
4ee-
4ee-
=27
8cc[
8cc]
8cc[
8cc]
=28
16cc
16dd-
16ee-
16dd-
8dd-[
16dd-]
16cc
=29
32cc
16.b-
8b-
16cc
16b-
16a-
16b-
=30
8b-[
8b-]
8cc
16cc
32cc
32ee-
=31
8aa-
16aa-
32aa-[
32aa-]
8aa-[
8aa-]
=32
16gg
16ff
16ee
16ff
8ff[
8ff]
=33
16ff
8.ee-
8ee-
8ee-
=34
4ee-
4ee-
=35
4ee
8.ee
32ee
32ff
=36
8aa-
16aa-
16gg
8ff
16ee-
16dd-
=37
4cc
8.ee
32ee
32ff
=38
8aa-
16aa-
16gg
8ff
16ee-
16dd-
=39
4cc
4cc
=40
16cc
16dd-
16ee-
16dd-
8dd-
16cc
16b-
=41
8a-
8a-
16a-
16b-
16cc
16b-
=42
4a-
4a-
=43
4ee
8.ee
32ee
32ff
=44
8aa-
16aa-
16gg
8ff
16ee-
16dd-
=45
4cc
8.ee
32ee
32ff
=46
8aa-
16aa-
16gg
8ff
16ee-
16dd-
=47
4cc
4cc
=48
16cc
16dd-
16ee-
16dd-
8dd-
16cc
16b-
=49
8a-
8a-
16a-
16b-
16cc
16b-
=50
4a-
8.a-
32a-
32b-
=51
8a-
16a-
16b-
8a-
16g
32a-
32b-
=52
4cc
8.cc
32cc[
32cc]
=53
8a-
16a-
16b-
8a-
16cc
32r
32cc
=54
8.ff
32ff[
32ff]
8.ff
32ff
32gg-
=55
8ff
16ff
16gg-
8ff
8ff
=56
8ff
8bb-
4ff
=57
16cc
16b-
16a-
16b-
16cc
16dd-
16cc
16ee
=58
4ff
8.ff
32ff
32aa-
=59
8gg
16gg
16aa-
8gg
8gg
=60
4bb-
8aa-
16gg
32ff[
32ff]
=61
8cc
16cc
16dd-
8cc
8ee
=62
4ff
8.ff
32ff
32aa-
=63
8gg
16gg
16aa-
8gg
8gg
=64
4bb-
8aa-
16gg
32ff[
32ff]
=65
8cc
16cc
16dd
8cc
16dd
32r
32dd
=66
8cc
16cc
16dd
8cc
16dd
32r
32dd
=67
8cc
16cc
16dd
8cc
8ee
=68
4ff
8.ff
32ff[
32ff]
=69
8cc
16cc
16dd
8cc
8a
=70
4b-
8.b-
32b-
32cc
=71
8b-
16b-
16cc
8b-
8e
=72
4f
[8.f
32f]
32dd
=73
8cc
16cc
16dd
8cc
8a
=74
4b-
8.b-
32b-
32cc
=75
8b-
16b-
16cc
8b-
8e
=76
4f
4f
=77
4f
4f
=78
2f
==
*-
